!!!!SEGMENT:25Hakohachi_c.krn
!!!OTL: 箱八
!!!OPR:Eiga Banso Kyokusyu,jidai-geki,zenpen
!!!YOY:1929
!!!ONB:Trip,Yamano
**kern
*clefG2
*C:
*M2/4
=1
4a
4a
=2
4b
4b
=3
4a
4a
=4
4b
4r
=5
2r
=6
2ee
=7
4ee
4ee
=8
4ff#
4ee
=9
4cc
4cc
=10
4b
4r
=11
4a
4b
=12
8ccL
8b
8a
8bJ
=13
4cc
4b
=14
4f#
8ddL
8ddJ
=15
4cc#X
4b
=16
4g
8bL
8gJ
=17
4g
4f#
=18
2e
=19
4e
4e
=20
4f#
4e
=21
4f#
4b
=22
4B
4r
=23
4cc#X
4b
=24
4g
4g
=25
4r
4dd
=26
4cc#X
4b
=27
4g
4r
=28
4f#
4g
=29
4f#
4e
=30
4e
4r
=31
2r
=32
2B
=33
4b
4b
=34
4B
4a
=35
4b
4g
=36
4f#
4r
=37
2r
=38
4f#
4f#
=39
4f#
4g
=40
4f#
4e
=41
4c
4B
=42
4a
4r
=43
4a
4b
=44
8ccL
8b
8a
8bJ
=45
4cc
4b
=46
4f#
8ddL
8ddJ
=47
4cc#X
4b
=48
4g
8bL
8gJ
=49
4g
4f#
=50
2e
=51
4e
4e
=52
4f#
4e
=53
4f#
4b
=54
4B
4cc
=55
2b
=56
4f#
4r
=57
4g
4e
=58
4f#
4f#
=59
4B
4f#
=60
4f#
4r
=61
2r
=62
4f#
4ff#
=63
4f#
4ff#
=64
4f#
4r
=65
2r
=66
4f#
4ff#
=67
4f#
4ff#
=68
4f#
4r
=69
4ff#
4ff#
=70
4f#
4r
=71
4ff#
4ff#
=72
4f#
4r
==
*-
!!!ENC: Yukiko Yoden
!!!END: 2023/06/11
